svg/fluentui-system-icons/ic_fluent_mail_arrow_double_back_16_filled.svg

<svg width="16" height="16" viewBox="0 0 16 16" fill="none" xmlns="http://www.w3.org/2000/svg">
<path d="M13 10.4003C12.2499 10.7837 11.4002 11 10.5 11C9.85025 11 9.22681 10.8873 8.64816 10.6805L7.23715 11.4402C7.08916 11.5199 6.91104 11.5199 6.76305 11.4402L1 8.33706V13C1 14.1046 1.89543 15 3 15H11C12.1046 15 13 14.1046 13 13V10.4003ZM5.02242 5H3C1.89543 5 1 5.89543 1 7V7.2013L7.0001 10.4321L7.54428 10.1391C6.01444 9.16236 5 7.44965 5 5.5C5 5.33146 5.00758 5.16468 5.02242 5ZM10.5 10C12.9853 10 15 7.98528 15 5.5C15 3.01472 12.9853 1 10.5 1C8.01472 1 6 3.01472 6 5.5C6 7.98528 8.01472 10 10.5 10ZM9.35355 3.64642C9.54881 3.84168 9.54881 4.15826 9.35355 4.35352L8.20711 5.49997L9.35355 6.64642C9.54881 6.84168 9.54881 7.15826 9.35355 7.35352C9.15829 7.54879 8.84171 7.54879 8.64645 7.35352L7.14645 5.85352C6.95118 5.65826 6.95118 5.34168 7.14645 5.14642L8.64645 3.64642C8.84171 3.45115 9.15829 3.45115 9.35355 3.64642ZM11.8536 4.35352L11.2071 4.99997H13C13.5523 4.99997 14 5.44769 14 5.99997V6.49997C14 6.77611 13.7761 6.99997 13.5 6.99997C13.2239 6.99997 13 6.77611 13 6.49997V5.99997H11.2071L11.8536 6.64642C12.0488 6.84168 12.0488 7.15826 11.8536 7.35352C11.6583 7.54879 11.3417 7.54879 11.1464 7.35352L9.64645 5.85352C9.45118 5.65826 9.45118 5.34168 9.64645 5.14642L11.1464 3.64642C11.3417 3.45115 11.6583 3.45115 11.8536 3.64642C12.0488 3.84168 12.0488 4.15826 11.8536 4.35352Z" fill="#212121"/>
</svg>

<svg xmlns="http://www.w3.org/2000/svg" width="16" height="16"><path d="M13 10.4c-.75.384-1.6.6-2.5.6-.65 0-1.273-.113-1.852-.32l-1.41.76a.5.5 0 0 1-.475 0L1 8.337V13a2 2 0 0 0 2 2h8a2 2 0 0 0 2-2v-2.6ZM5.022 5H3a2 2 0 0 0-2 2v.201l6 3.231.544-.293A5.496 5.496 0 0 1 5.022 5Zm5.478 5a4.5 4.5 0 1 0 0-9 4.5 4.5 0 0 0 0 9ZM9.354 3.646a.5.5 0 0 1 0 .708L8.207 5.5l1.147 1.146a.5.5 0 0 1-.708.708l-1.5-1.5a.5.5 0 0 1 0-.708l1.5-1.5a.5.5 0 0 1 .708 0Zm2.5.708L11.207 5H13a1 1 0 0 1 1 1v.5a.5.5 0 0 1-1 0V6h-1.793l.647.646a.5.5 0 0 1-.708.708l-1.5-1.5a.5.5 0 0 1 0-.708l1.5-1.5a.5.5 0 0 1 .708.708Z"/></svg>
